Sources/FrostedUI/Resources/Icons.xcassets/receipt16.imageset/receipt-16.svg

<svg width="16" height="16" viewBox="0 0 16 16" fill="none" xmlns="http://www.w3.org/2000/svg" data-fui-icon="true">
  <path
    d="M13.5 0.25C13.9142 0.25 14.25 0.585786 14.25 1V15C14.25 15.2841 14.089 15.5439 13.835 15.6709C13.581 15.7977 13.277 15.77 13.0498 15.5996L11.5312 14.46L10.2383 15.5693C9.95741 15.8101 9.54259 15.8101 9.26172 15.5693L8 14.4873L6.73828 15.5693C6.45741 15.8101 6.04259 15.8101 5.76172 15.5693L4.46777 14.46L2.9502 15.5996C2.72305 15.77 2.41905 15.7977 2.16504 15.6709C1.91095 15.5439 1.75 15.2841 1.75 15V1C1.75 0.585786 2.08579 0.25 2.5 0.25H13.5ZM3.25 13.5L4.0498 12.9004L4.16016 12.8311C4.42681 12.6954 4.7548 12.7305 4.98828 12.9307L6.25 14.0117L7.51172 12.9307L7.62305 12.8516C7.89437 12.6936 8.24254 12.72 8.48828 12.9307L9.75 14.0117L11.0117 12.9307L11.1172 12.8545C11.3745 12.7017 11.7042 12.7159 11.9502 12.9004L12.75 13.5V1.75H3.25V13.5ZM8.5 6.25C8.91421 6.25 9.25 6.58579 9.25 7C9.25 7.41421 8.91421 7.75 8.5 7.75H5.5C5.08579 7.75 4.75 7.41421 4.75 7C4.75 6.58579 5.08579 6.25 5.5 6.25H8.5ZM10.5 3.25C10.9142 3.25 11.25 3.58579 11.25 4C11.25 4.41421 10.9142 4.75 10.5 4.75H5.5C5.08579 4.75 4.75 4.41421 4.75 4C4.75 3.58579 5.08579 3.25 5.5 3.25H10.5Z"
    fill="currentColor"
  />
</svg>

<svg xmlns="http://www.w3.org/2000/svg" width="16" height="16" fill="none" data-fui-icon="true" viewBox="0 0 16 16"><path fill="currentColor" d="M13.5.25a.75.75 0 0 1 .75.75v14a.75.75 0 0 1-1.2.6l-1.519-1.14-1.293 1.11a.75.75 0 0 1-.976 0L8 14.486 6.738 15.57a.75.75 0 0 1-.976 0L4.468 14.46 2.95 15.6a.75.75 0 0 1-1.2-.6V1A.75.75 0 0 1 2.5.25zM3.25 13.5l.8-.6.11-.069a.75.75 0 0 1 .828.1l1.262 1.08 1.262-1.08.111-.08a.75.75 0 0 1 .865.08l1.262 1.08 1.262-1.08.105-.076a.75.75 0 0 1 .833.045l.8.6V1.75h-9.5zM8.5 6.25a.75.75 0 0 1 0 1.5h-3a.75.75 0 0 1 0-1.5zm2-3a.75.75 0 0 1 0 1.5h-5a.75.75 0 0 1 0-1.5z"/></svg>
